contributed-vectors/androidrun.svg

<?xml version="1.0" encoding="UTF-8" standalone="no"?>
<svg
   xmlns:dc="http://purl.org/dc/elements/1.1/"
   xmlns:cc="http://creativecommons.org/ns#"
   xmlns:rdf="http://www.w3.org/1999/02/22-rdf-syntax-ns#"
   xmlns:svg="http://www.w3.org/2000/svg"
   xmlns="http://www.w3.org/2000/svg"
   xmlns:sodipodi="http://sodipodi.sourceforge.net/DTD/sodipodi-0.dtd"
   xmlns:inkscape="http://www.inkscape.org/namespaces/inkscape"
   width="192"
   height="192"
   version="1.1"
   viewBox="0 0 192 192"
   id="svg14"
   sodipodi:docname="androidrun.svg"
   inkscape:version="0.92.5 (2060ec1f9f, 2020-04-08)">
  <metadata
     id="metadata20">
    <rdf:RDF>
      <cc:Work
         rdf:about="">
        <dc:format>image/svg+xml</dc:format>
        <dc:type
           rdf:resource="http://purl.org/dc/dcmitype/StillImage" />
        <dc:title></dc:title>
      </cc:Work>
    </rdf:RDF>
  </metadata>
  <defs
     id="defs18" />
  <sodipodi:namedview
     pagecolor="#ffffff"
     bordercolor="#666666"
     borderopacity="1"
     objecttolerance="10"
     gridtolerance="10"
     guidetolerance="10"
     inkscape:pageopacity="0"
     inkscape:pageshadow="2"
     inkscape:window-width="1280"
     inkscape:window-height="745"
     id="namedview16"
     showgrid="false"
     inkscape:zoom="1.2291667"
     inkscape:cx="-50.847458"
     inkscape:cy="96"
     inkscape:window-x="-12"
     inkscape:window-y="-2"
     inkscape:window-maximized="1"
     inkscape:current-layer="svg14" />
  <rect
     style="opacity:1;fill:#54688c;stroke:none;stroke-width:1"
     id="rect2-3"
     rx="10"
     height="153"
     width="153"
     y="19.5"
     x="19.5" />
  <path
     inkscape:connector-curvature="0"
     style="color:#000000;font-style:normal;font-variant:normal;font-weight:normal;font-stretch:normal;font-size:medium;line-height:normal;font-family:sans-serif;font-variant-ligatures:normal;font-variant-position:normal;font-variant-caps:normal;font-variant-numeric:normal;font-variant-alternates:normal;font-feature-settings:normal;text-indent:0;text-align:start;text-decoration:none;text-decoration-line:none;text-decoration-style:solid;text-decoration-color:#000000;letter-spacing:normal;word-spacing:normal;text-transform:none;writing-mode:lr-tb;direction:ltr;text-orientation:mixed;dominant-baseline:auto;baseline-shift:baseline;text-anchor:start;white-space:normal;shape-padding:0;clip-rule:nonzero;display:inline;overflow:visible;visibility:visible;opacity:1;isolation:auto;mix-blend-mode:normal;color-interpolation:sRGB;color-interpolation-filters:linearRGB;solid-color:#000000;solid-opacity:1;vector-effect:none;fill:#98dc9a;fill-opacity:1;fill-rule:nonzero;stroke:none;stroke-width:12;stroke-linecap:round;stroke-linejoin:round;stroke-miterlimit:4;stroke-dasharray:none;stroke-dashoffset:0;stroke-opacity:1;color-rendering:auto;image-rendering:auto;shape-rendering:auto;text-rendering:auto;enable-background:accumulate"
     d="M 122,48 A 10,10 0 0 0 112,58 10,10 0 0 0 122,68 10,10 0 0 0 132,58 10,10 0 0 0 122,48 Z M 111.96094,67.96092 C 100,68 96,68 84,68 c -1.260388,-5.6e-4 -2.447332,0.59292 -3.203124,1.60156 l -12,16 c -3.197912,4.27084 3.208336,9.06772 6.406248,4.79688 L 86,76 h 15.125 L 74.945312,112 H 54 c -8.113936,-0.1148 -8.113936,12.11476 0,12 h 24 c 1.918896,1.6e-4 3.722136,-0.91744 4.851564,-2.46876 l 14.460936,-19.8828 11.08594,10.52344 v 26.22656 c -0.11476,8.11392 12.11475,8.11392 12,0 v -28.79688 c 4.4e-4,-1.64516 -0.67458,-3.21832 -1.86719,-4.35156 L 104.4375,91.85936 113.60156,79.2578 125.17188,90.82812 c 1.56212,1.56148 4.09412,1.56148 5.65624,0 l 12,-12 c 3.92672,-3.77004 -1.88621,-9.58296 -5.65624,-5.65624 L 128,82.34376 114.82812,69.17188 c -0.75308,-0.77412 -1.78718,-1.21088 -2.86718,-1.21096 z"
     id="path829" />
</svg>

<svg xmlns="http://www.w3.org/2000/svg" width="192" height="192"><rect width="153" height="153" x="19.5" y="19.5" rx="10" style="opacity:1;fill:#54688c;stroke:none;stroke-width:1"/><path d="M122 48a10 10 0 0 0-10 10 10 10 0 0 0 10 10 10 10 0 0 0 10-10 10 10 0 0 0-10-10Zm-10.04 19.96C100 68 96 68 84 68a4 4 0 0 0-3.203 1.602l-12 16c-3.198 4.27 3.208 9.067 6.406 4.796L86 76h15.125l-26.18 36H54c-8.114-.115-8.114 12.115 0 12h24a6 6 0 0 0 4.852-2.469l14.46-19.883 11.086 10.524v26.226c-.114 8.114 12.115 8.114 12 0v-28.796a6 6 0 0 0-1.867-4.352l-14.094-13.39 9.165-12.602 11.57 11.57a4 4 0 0 0 5.656 0l12-12c3.927-3.77-1.886-9.583-5.656-5.656L128 82.344l-13.172-13.172a4 4 0 0 0-2.867-1.211z" style="color:#000;font-style:normal;font-variant:normal;font-weight:400;font-stretch:normal;font-size:medium;line-height:normal;font-family:sans-serif;font-variant-ligatures:normal;font-variant-position:normal;font-variant-caps:normal;font-variant-numeric:normal;font-variant-alternates:normal;font-feature-settings:normal;text-indent:0;text-align:start;text-decoration:none;text-decoration-line:none;text-decoration-style:solid;text-decoration-color:#000;letter-spacing:normal;word-spacing:normal;text-transform:none;writing-mode:lr-tb;direction:ltr;text-orientation:mixed;dominant-baseline:auto;baseline-shift:baseline;text-anchor:start;white-space:normal;shape-padding:0;clip-rule:nonzero;display:inline;overflow:visible;visibility:visible;opacity:1;isolation:auto;mix-blend-mode:normal;color-interpolation:sRGB;color-interpolation-filters:linearRGB;solid-color:#000;solid-opacity:1;vector-effect:none;fill:#98dc9a;fill-opacity:1;fill-rule:nonzero;stroke:none;stroke-width:12;stroke-linecap:round;stroke-linejoin:round;stroke-miterlimit:4;stroke-dasharray:none;stroke-dashoffset:0;stroke-opacity:1;color-rendering:auto;image-rendering:auto;shape-rendering:auto;text-rendering:auto;enable-background:accumulate"/></svg>
